Sources/FrostedUI/Resources/Icons.xcassets/peoplePlus12.imageset/people-plus-12.svg

<svg width="12" height="12" viewBox="0 0 12 12" fill="none" xmlns="http://www.w3.org/2000/svg" data-fui-icon="true">
  <path
    d="M9 6.25C9.41421 6.25 9.75 6.58579 9.75 7V8.25H11C11.4142 8.25 11.75 8.58579 11.75 9C11.75 9.41421 11.4142 9.75 11 9.75H9.75V11C9.75 11.4142 9.41421 11.75 9 11.75C8.58579 11.75 8.25 11.4142 8.25 11V9.75H7C6.58579 9.75 6.25 9.41421 6.25 9C6.25 8.58579 6.58579 8.25 7 8.25H8.25V7C8.25 6.58579 8.58579 6.25 9 6.25ZM8.39746 3.25C9.75399 3.25012 11.0517 3.92181 11.5498 5.05566H11.5488C11.6805 5.35126 11.75 5.67134 11.75 6C11.75 6.41421 11.4142 6.75 11 6.75C10.5858 6.75 10.25 6.41421 10.25 6C10.25 5.88229 10.2258 5.76914 10.1787 5.66406L10.1758 5.65918L10.1338 5.5752C9.89708 5.15579 9.27211 4.75012 8.39746 4.75C7.71559 4.75 7.1766 5.00118 6.86328 5.31445C7.17066 5.60519 7.43691 5.94318 7.65039 6.31543C7.85624 6.67471 7.73228 7.13285 7.37305 7.33887C7.01386 7.54476 6.55574 7.42053 6.34961 7.06152C5.86168 6.2107 5.04023 5.71249 4.16211 5.75195C2.90545 5.80833 1.75 7.09898 1.75 8.81836C1.75 8.96665 1.80348 9.08411 1.86816 9.15723C1.93126 9.22843 1.9948 9.24987 2.04492 9.25H4.83691C5.25108 9.25006 5.58691 9.58582 5.58691 10C5.58691 10.4142 5.25108 10.7499 4.83691 10.75H2.04492C0.969342 10.7497 0.250001 9.79666 0.25 8.81836C0.25 6.53544 1.81806 4.35613 4.09473 4.25391L4.37891 4.25195C4.80291 4.26523 5.20643 4.35327 5.58301 4.49902C6.20581 3.70817 7.27612 3.25 8.39746 3.25ZM4 0.25C4.9665 0.25 5.75 1.0335 5.75 2C5.75 2.9665 4.9665 3.75 4 3.75C3.0335 3.75 2.25 2.9665 2.25 2C2.25 1.0335 3.0335 0.25 4 0.25ZM8.5 0.25C9.19036 0.25 9.75 0.809644 9.75 1.5C9.75 2.19036 9.19036 2.75 8.5 2.75C7.80964 2.75 7.25 2.19036 7.25 1.5C7.25 0.809644 7.80964 0.25 8.5 0.25ZM4 1.75C3.86193 1.75 3.75 1.86193 3.75 2C3.75 2.13807 3.86193 2.25 4 2.25C4.13807 2.25 4.25 2.13807 4.25 2C4.25 1.86193 4.13807 1.75 4 1.75ZM8.5 1.25C8.36193 1.25 8.25 1.36193 8.25 1.5C8.25 1.63807 8.36193 1.75 8.5 1.75C8.63807 1.75 8.75 1.63807 8.75 1.5C8.75 1.36193 8.63807 1.25 8.5 1.25Z"
    fill="currentColor"
  />
</svg>

<svg xmlns="http://www.w3.org/2000/svg" width="12" height="12" fill="none" data-fui-icon="true" viewBox="0 0 12 12"><path fill="currentColor" d="M9 6.25a.75.75 0 0 1 .75.75v1.25H11a.75.75 0 0 1 0 1.5H9.75V11a.75.75 0 0 1-1.5 0V9.75H7a.75.75 0 0 1 0-1.5h1.25V7A.75.75 0 0 1 9 6.25m-.603-3c1.357 0 2.655.672 3.153 1.806h-.001c.132.295.201.615.201.944a.75.75 0 0 1-1.5 0 .8.8 0 0 0-.071-.336l-.003-.005-.042-.084c-.237-.42-.862-.825-1.737-.825-.681 0-1.22.251-1.534.564.308.291.574.63.787 1.001a.75.75 0 0 1-1.3.747c-.488-.851-1.31-1.35-2.188-1.31-1.257.056-2.412 1.347-2.412 3.066 0 .149.053.266.118.34.063.07.127.092.177.092h2.792a.75.75 0 0 1 0 1.5H2.045C.969 10.75.25 9.797.25 8.818c0-2.283 1.568-4.462 3.845-4.564l.284-.002c.424.013.827.101 1.204.247.623-.79 1.693-1.249 2.814-1.249M4 .25a1.75 1.75 0 1 1 0 3.5 1.75 1.75 0 0 1 0-3.5m4.5 0a1.25 1.25 0 1 1 0 2.5 1.25 1.25 0 0 1 0-2.5M4 1.75a.25.25 0 1 0 0 .5.25.25 0 0 0 0-.5m4.5-.5a.25.25 0 1 0 0 .5.25.25 0 0 0 0-.5"/></svg>
